public/vscode-icons/chef.svg

<svg xmlns="http://www.w3.org/2000/svg" viewBox="0 0 32 32"><path d="M11.791 20.247a6.1 6.1 0 0 0 4.265 1.773V19.5a3.44 3.44 0 0 1-2.483-1.027ZM18.249 10.4l-.933 2.333a3.77 3.77 0 0 1 1.784 1.494h2.716a6.07 6.07 0 0 0-3.567-3.827" style="fill:#3f5364"/><path d="M10.008 16a6.1 6.1 0 0 0 .513 2.427l2.3-1.027a3.4 3.4 0 0 1-.28-1.4 3.534 3.534 0 0 1 3.509-3.5V9.98A6.045 6.045 0 0 0 10.008 16M17.307 19.267l.933 2.333a6.05 6.05 0 0 0 3.6-3.873h-2.713a3.6 3.6 0 0 1-1.82 1.54" style="fill:#f18b21"/><path d="M16.047 22.3a6.3 6.3 0 1 1 6.085-8.027h2.436a8.657 8.657 0 1 0 0 3.5h-2.436a6.3 6.3 0 0 1-6.085 4.527" style="fill:#3f5364"/><path d="M16.047 7.04V4.66a11.325 11.325 0 0 0-10.584 7.233l2.2.84a9.05 9.05 0 0 1 8.384-5.693M16.047 24.96v2.38a11.37 11.37 0 0 0 11.237-9.567h-2.436a8.936 8.936 0 0 1-8.801 7.187" style="fill:#3f5364"/><path d="M24.895 14.273h2.389a11.4 11.4 0 0 0-7.121-8.82l-.84 2.193a9.11 9.11 0 0 1 5.572 6.627M7.059 16h-2.39a11.36 11.36 0 0 0 7.168 10.547l.887-2.193A9.03 9.03 0 0 1 7.059 16" style="fill:#f18b21"/><path d="M27.564 14.273h2.389a14.5 14.5 0 0 0-2.016-5.647l-2.016 1.26a10.46 10.46 0 0 1 1.643 4.387M2 16.009a14.7 14.7 0 0 0 1.241 6.048l2.315-.952a12.45 12.45 0 0 1-1.148-5.1" style="fill:#3f5364"/><path d="M16.047 27.62a11.63 11.63 0 0 1-8.241-3.407l-1.689 1.68A13.85 13.85 0 0 0 16.047 30 14.08 14.08 0 0 0 30 17.727h-2.389a11.72 11.72 0 0 1-11.564 9.893M16.047 4.38a11.38 11.38 0 0 1 6.972 2.333L24.475 4.8A13.96 13.96 0 0 0 16.047 2a14.1 14.1 0 0 0-13.114 8.913l2.249.887a11.69 11.69 0 0 1 10.865-7.42" style="fill:#f18b21"/></svg>

<svg xmlns="http://www.w3.org/2000/svg" viewBox="0 0 32 32"><title>file_type_chef</title><path d="M11.791,20.247a6.1,6.1,0,0,0,4.265,1.773V19.5a3.438,3.438,0,0,1-2.483-1.027Z" style="fill:#3f5364"/><path d="M18.249,10.4l-.933,2.333A3.771,3.771,0,0,1,19.1,14.227h2.716A6.073,6.073,0,0,0,18.249,10.4Z" style="fill:#3f5364"/><path d="M10.008,16a6.114,6.114,0,0,0,.513,2.427l2.3-1.027a3.41,3.41,0,0,1-.28-1.4,3.534,3.534,0,0,1,3.509-3.5V9.98A6.045,6.045,0,0,0,10.008,16Z" style="fill:#f18b21"/><path d="M17.307,19.267,18.24,21.6a6.048,6.048,0,0,0,3.6-3.873H19.127A3.587,3.587,0,0,1,17.307,19.267Z" style="fill:#f18b21"/><path d="M16.047,22.3a6.3,6.3,0,1,1,6.085-8.027h2.436a8.657,8.657,0,1,0,0,3.5H22.132A6.3,6.3,0,0,1,16.047,22.3Z" style="fill:#3f5364"/><path d="M16.047,7.04h0V4.66h0A11.325,11.325,0,0,0,5.463,11.893l2.2.84A9.048,9.048,0,0,1,16.047,7.04Z" style="fill:#3f5364"/><path d="M16.047,24.96v2.38a11.373,11.373,0,0,0,11.237-9.567H24.848A8.936,8.936,0,0,1,16.047,24.96Z" style="fill:#3f5364"/><path d="M24.895,14.273h2.389a11.4,11.4,0,0,0-7.121-8.82l-.84,2.193A9.112,9.112,0,0,1,24.895,14.273Z" style="fill:#f18b21"/><path d="M7.059,16H4.669a11.361,11.361,0,0,0,7.168,10.547l.887-2.193A9.029,9.029,0,0,1,7.059,16Z" style="fill:#f18b21"/><path d="M27.564,14.273h2.389a14.463,14.463,0,0,0-2.016-5.647l-2.016,1.26A10.461,10.461,0,0,1,27.564,14.273Z" style="fill:#3f5364"/><path d="M2,16.009a14.74,14.74,0,0,0,1.241,6.048l2.315-.952a12.448,12.448,0,0,1-1.148-5.1" style="fill:#3f5364"/><path d="M16.047,27.62a11.632,11.632,0,0,1-8.241-3.407l-1.689,1.68A13.846,13.846,0,0,0,16.047,30,14.082,14.082,0,0,0,30,17.727H27.611A11.719,11.719,0,0,1,16.047,27.62Z" style="fill:#f18b21"/><path d="M16.047,4.38a11.38,11.38,0,0,1,6.972,2.333L24.475,4.8A13.96,13.96,0,0,0,16.047,2,14.1,14.1,0,0,0,2.933,10.913l2.249.887A11.686,11.686,0,0,1,16.047,4.38Z" style="fill:#f18b21"/></svg>
